comment-multiple-outline.svg

<svg fill="currentColor" viewBox="0 0 24 24"><path d="M12 23a1 1 0 0 1-1-1v-3H7a2 2 0 0 1-2-2V7a2 2 0 0 1 2-2h14a2 2 0 0 1 2 2v10a2 2 0 0 1-2 2h-4.1l-3.7 3.71c-.2.19-.45.29-.7.29zm1-6v3.08L16.08 17H21V7H7v10zM3 15H1V3a2 2 0 0 1 2-2h16v2H3z"/></svg>

<svg  viewBox="0 0 24 24" fill="currentColor"><path  d="M12,23A1,1 0 0,1 11,22V19H7A2,2 0 0,1 5,17V7C5,5.89 5.9,5 7,5H21A2,2 0 0,1 23,7V17A2,2 0 0,1 21,19H16.9L13.2,22.71C13,22.9 12.75,23 12.5,23V23H12M13,17V20.08L16.08,17H21V7H7V17H13M3,15H1V3A2,2 0 0,1 3,1H19V3H3V15Z"/></svg>
